Newaita-dark/actions/22/calendar-go-today.svg

<svg height="22" viewBox="0 0 22 22" width="22" xmlns="http://www.w3.org/2000/svg"><g fill="#e0e0e0"><path d="m3.636719 1.992188c-1.007813 0-1.816407.808593-1.816407 1.816406v6.367187h1.816407v-5.457031c0-.503906.40625-.910156.910156-.910156h12.734375c.503906 0 .910156.40625.910156.910156v12.734375c0 .503906-.40625.910156-.910156.910156h-12.734375c-.503906 0-.910156-.40625-.910156-.910156v-.910156h-1.816407v1.820312c0 1.007813.808594 1.820313 1.816407 1.820313h14.554687c1.007813 0 1.820313-.8125 1.820313-1.820313v-14.554687c0-1.007813-.8125-1.816406-1.820313-1.816406zm0 0"/><path d="m15.464844 4.71875c.5 0 .90625.410156.90625.910156 0 .503906-.40625.910156-.90625.910156-.503906 0-.910156-.40625-.910156-.910156 0-.5.40625-.910156.910156-.910156zm0 0"/><path d="m2.730469 7.449219h16.371093v.910156h-16.371093zm0 0"/><path d="m6.367188 4.71875c.503906 0 .910156.410156.910156.910156 0 .503906-.40625.910156-.910156.910156-.503907 0-.910157-.40625-.910157-.910156 0-.5.40625-.910156.910157-.910156zm0 0"/><path d="m6.820312 14.269531v-1.816406h-4.535156c-.25 0-.453125.199219-.453125.453125v.910156c0 .25.203125.453125.453125.453125zm0 0"/><path d="m6.367188 10.175781v6.367188l4.546874-3.183594zm0 0"/></g></svg>

<?xml version="1.0" encoding="UTF-8"?>
<svg xmlns="http://www.w3.org/2000/svg" xmlns:xlink="http://www.w3.org/1999/xlink" width="22px" height="22px" viewBox="0 0 22 22" version="1.1">
<g id="surface1">
<path style=" stroke:none;fill-rule:nonzero;fill:rgb(87.843138%,87.843138%,87.843138%);fill-opacity:1;" d="M 3.636719 1.992188 C 2.628906 1.992188 1.820312 2.800781 1.820312 3.808594 L 1.820312 10.175781 L 3.636719 10.175781 L 3.636719 4.71875 C 3.636719 4.214844 4.042969 3.808594 4.546875 3.808594 L 17.28125 3.808594 C 17.785156 3.808594 18.191406 4.214844 18.191406 4.71875 L 18.191406 17.453125 C 18.191406 17.957031 17.785156 18.363281 17.28125 18.363281 L 4.546875 18.363281 C 4.042969 18.363281 3.636719 17.957031 3.636719 17.453125 L 3.636719 16.542969 L 1.820312 16.542969 L 1.820312 18.363281 C 1.820312 19.371094 2.628906 20.183594 3.636719 20.183594 L 18.191406 20.183594 C 19.199219 20.183594 20.011719 19.371094 20.011719 18.363281 L 20.011719 3.808594 C 20.011719 2.800781 19.199219 1.992188 18.191406 1.992188 Z M 3.636719 1.992188 "/>
<path style=" stroke:none;fill-rule:nonzero;fill:rgb(87.843138%,87.843138%,87.843138%);fill-opacity:1;" d="M 15.464844 4.71875 C 15.964844 4.71875 16.371094 5.128906 16.371094 5.628906 C 16.371094 6.132812 15.964844 6.539062 15.464844 6.539062 C 14.960938 6.539062 14.554688 6.132812 14.554688 5.628906 C 14.554688 5.128906 14.960938 4.71875 15.464844 4.71875 Z M 15.464844 4.71875 "/>
<path style=" stroke:none;fill-rule:nonzero;fill:rgb(87.843138%,87.843138%,87.843138%);fill-opacity:1;" d="M 2.730469 7.449219 L 19.101562 7.449219 L 19.101562 8.359375 L 2.730469 8.359375 Z M 2.730469 7.449219 "/>
<path style=" stroke:none;fill-rule:nonzero;fill:rgb(87.843138%,87.843138%,87.843138%);fill-opacity:1;" d="M 6.367188 4.71875 C 6.871094 4.71875 7.277344 5.128906 7.277344 5.628906 C 7.277344 6.132812 6.871094 6.539062 6.367188 6.539062 C 5.863281 6.539062 5.457031 6.132812 5.457031 5.628906 C 5.457031 5.128906 5.863281 4.71875 6.367188 4.71875 Z M 6.367188 4.71875 "/>
<path style=" stroke:none;fill-rule:nonzero;fill:rgb(87.843138%,87.843138%,87.843138%);fill-opacity:1;" d="M 6.820312 14.269531 L 6.820312 12.453125 L 2.285156 12.453125 C 2.035156 12.453125 1.832031 12.652344 1.832031 12.90625 L 1.832031 13.816406 C 1.832031 14.066406 2.035156 14.269531 2.285156 14.269531 Z M 6.820312 14.269531 "/>
<path style=" stroke:none;fill-rule:nonzero;fill:rgb(87.843138%,87.843138%,87.843138%);fill-opacity:1;" d="M 6.367188 10.175781 L 6.367188 16.542969 L 10.914062 13.359375 Z M 6.367188 10.175781 "/>
</g>
</svg>
